symbols-de/shields/motorway_8x1_z18.svg

<?xml version="1.0" encoding="UTF-8" standalone="no"?>
<svg
   xmlns:dc="http://purl.org/dc/elements/1.1/"
   xmlns:cc="http://creativecommons.org/ns#"
   xmlns:rdf="http://www.w3.org/1999/02/22-rdf-syntax-ns#"
   xmlns:svg="http://www.w3.org/2000/svg"
   xmlns="http://www.w3.org/2000/svg"
   xmlns:sodipodi="http://sodipodi.sourceforge.net/DTD/sodipodi-0.dtd"
   xmlns:inkscape="http://www.inkscape.org/namespaces/inkscape"
   width="100%"
   height="100%"
   viewBox="0 0 67.0 17.0"
   id="svg2"
   version="1.1"
   inkscape:version="0.91 r13725"
   sodipodi:docname="autobahn_8x1_z18.svg">
  <metadata
     id="metadata9">
    <rdf:RDF>
      <cc:Work
         rdf:about="">
        <dc:format>image/svg+xml</dc:format>
        <dc:type
           rdf:resource="http://purl.org/dc/dcmitype/StillImage" />
        <dc:title></dc:title>
      </cc:Work>
    </rdf:RDF>
  </metadata>
  <defs
     id="defs7" />
  <sodipodi:namedview
     pagecolor="#ffffff"
     bordercolor="#666666"
     borderopacity="1"
     objecttolerance="10"
     gridtolerance="10"
     guidetolerance="10"
     inkscape:pageopacity="0"
     inkscape:pageshadow="2"
     inkscape:window-width="835"
     inkscape:window-height="678"
     id="namedview5"
     showgrid="false"
     inkscape:zoom="5.2686567"
     inkscape:cx="33.5"
     inkscape:cy="8.5"
     inkscape:window-x="185"
     inkscape:window-y="134"
     inkscape:window-maximized="0"
     inkscape:current-layer="svg2" />
  <path
     inkscape:connector-curvature="0"
     style="fill:#365eaf;fill-opacity:1;stroke:#0528a2;stroke-width:1;stroke-miterlimit:4;stroke-dasharray:none;stroke-opacity:1"
     id="path6"
     d="m 0.5,8.500039 0,-5.52728 Q 0.5,2.681848 1.5645131,2.536396 L 32.790313,0.514578 q 0,-0.01458 0.709683,-0.01458 0.709675,0 0.709675,0.01458 l 31.225806,2.021818 q 1.064522,0.145452 1.064522,0.436363 l 0,11.054563 q 0,0.290913 -1.064522,0.436363 L 34.209671,16.4855 q 0,0.0145 -0.709675,0.0145 -0.709683,0 -0.709683,-0.0145 L 1.5645131,14.463685 Q 0.5,14.318235 0.5,14.027322 Z" />
</svg>

<?xml version="1.0" encoding="UTF-8"?>
<svg xmlns="http://www.w3.org/2000/svg" xmlns:xlink="http://www.w3.org/1999/xlink" width="65pt" height="21pt" viewBox="0 0 65 21" version="1.1">
<g id="surface1">
<path style="fill-rule:nonzero;fill:rgb(21.176471%,36.862745%,68.627451%);fill-opacity:1;stroke-width:1;stroke-linecap:butt;stroke-linejoin:miter;stroke:rgb(1.960784%,15.686275%,63.529412%);stroke-opacity:1;stroke-miterlimit:4;" d="M 0.499279 8.5 L 0.499279 2.97247 C 0.499279 2.779576 0.853606 2.634115 1.566286 2.536086 L 32.791346 0.515439 C 32.791346 0.505952 33.02488 0.499628 33.5 0.499628 C 33.97512 0.499628 34.208654 0.505952 34.208654 0.515439 L 65.433714 2.536086 C 66.146394 2.634115 66.500721 2.779576 66.500721 2.97247 L 66.500721 14.02753 C 66.500721 14.220424 66.146394 14.365885 65.433714 14.463914 L 34.208654 16.484561 C 34.208654 16.494048 33.97512 16.500372 33.5 16.500372 C 33.02488 16.500372 32.791346 16.494048 32.791346 16.484561 L 1.566286 14.463914 C 0.853606 14.365885 0.499279 14.220424 0.499279 14.02753 Z M 0.499279 8.5 " transform="matrix(0.970149,0,0,1.235294,0,0)"/>
</g>
</svg>
